X:52
T:Dogs among the Bushes, The
S:Paddy Carty, transcribed by Alan Ng
D:Paddy Carty, Traditional Irish Music, Shanachie 34017, 1997
Z: id:ng-reels-52 transcribed by Alan Ng alan@alan-ng.nospam (net) 24 April 2005
M:C!
K:GMix
|BG~G2 DG~G2|BG~G2 cedc|BG~G2 DGBG|AF~F2 fdcA|\
BG~G2 Dz~G2|BG~G2 czdc|B2GF DEFG|AF~F2 FdcA||\
BG~G2 Dz~G2|BG~G2 cedc|BG~G2 DGBG|AF~F2 fdcA|\
BG~G2 Dz~G2|BG~G2 czdc|BABc dg^fd|cA^FA dBcA||\
dgg^f gagf|dg~g2 bgaz|defe fefe|de(3f^fg agfa|\
dgg^f gzgf|dg~g2 ag~g2|bg~g2 b/a/^fde|^fzb/a/g fdcA||\
dg^fa gzgf|dg~g2 bga^f|defe fzfc|df~f2 afgf|\
dgg^f gagf|dg~g2 aggz|bg~g2 b/a/^fde|^fgag fdcA|]*
